X: 1
T:Golden Gat:e -- Reel
M:2/4
L:1/16
C:FRANK LIVINGSTON.
R:reel
B:Ryan's Mammoth Collection
N:325
Z:Contributed by Ray Davies,  ray:davies99.freeserve.co.uk
K:G
vdc"^Segno"|\
vB2vBuA vG2vGuF | EAGE D2vDuC | B,DGA BGFG | edBG A2vduc |
B2BA G2GF | EAGE D2DC | B,DGB ADFA | G2B2G2:|
K:D
|:vFG|\
vA3vd u((3dcd) vf3vd u((3dcd) | \
B3"4"e ((3e^de) g3"4"e ((3ede) | ceba gecG | \
FAdf a2vFuG | A3d ((3dcd) f3d ((3dcd) | \
B3e ((3e^de) g3e ((3ede) | \
ceba geBc |1 d2d2d2:|2 d^dfe =dc=cA "^Segno" |]
